X:1
T: April Elephants
C:Bruce Shawyer
R:Reel
Q:232
K:G
M:4/4
L:1/16
D2|"G"G4B2A2 G4B2A2|G2A2B2c2 d8|"D7"c4c2B2 A4A2G2|F4F2G2 A4D4|"G"G4B2A2 G4B2A2|G2A2B2c2 d8|"Am"c4c2B2 A4A2G2|"D7"F2G2A2F2 "G"G8|
"Em"g4e2g2 "D"f4d2f2|"C"e2d2c2e2 "G"d8|"C"e4c2e2 "G"d4B2d2|"Am"c2B2A2G2 "D7"F2D2E2F2|"G"G4B2G2 "D7"A4c2A2|Em"B2c2d2B2 "C"e6f2|"Em"g2f2e2d2 "Am"c2B2A2G2|"D7"F2G2A2F2 "G"G8|
"G"G2A2B2A2 G2A2B2A2|G2A2B2c2 d8|"D7"c4c2B2 A4A2G2|F2F2F2G2 A4D4|"G"G2A2B2A2 G2A2B2A2|G2A2B2c2 d8|"Am"c4c2B2 A4A2G2|"D7"F2G2A2F2 "G"G8|
"Em"g2f2e2g2 "D"f2e2d2f2|"C"e2d2c2e2 "G"d8|"C"e2d2c2e2 "G"d2c2B2d2|"Am"c2B2A2G2 "D7"F2D2E2F2|"G"G4B2G2 "D7"A4c2A2|"Em"B2c2d2B2 "C"e6f2|"Em"g2f2e2d2 "Am"c2B2A2G2|"D7"F2G2A2F2 "G"G6||
